!!!OTL: AUF BRUEDER LASST UNS ROSEN PFLUECKEN
!!!ARE: Europa, Mitteleuropa, Deutschland
!!!SCT: F0542
!!!YEM: Copyright 1995, estate of Helmut Schaffrath.
**kern
*ICvox
*Ivox
*M2/4
*k[f#c#g#]
*A:
=1
{4a
8a
8a
=2
4a
4cc#
=3
4b
4ee
=4
4cc#
4a}
=5
{4b
8b
8b
=6
4.b
8a
=7
4g#
4f#
=8
4e
4r}
=9
{4a
8a
8a
=10
4a
4cc#
=11
4b
4ee
=12
4cc#
4a}
=13
{4b
8b
8b
=14
4.b
8a
=15
4g#
4f#
=16
4e
4r}
=17
{4cc#
8cc#
8cc#
=18
4cc#
8b
8cc#
=19
4dd
4cc#
=20
2b}
=21
{4ee
8ee
8ee
=22
4.ee
8cc#
=23
8dd
8cc#
8dd
8ee
=24
2ff#}
=25
{4ee
8ee
8ee
=26
4.ee
8cc#
=27
8b
8a
8b
8cc#
=28
4a
4r}
==
!!!AGN: Studenten - Lied, Geselligkeit
!!!ONB: ESAC (Essen Associative Code) Database: FINK
!!!AMT: simple duple
!!!AIN: vox
!!!EED: Helmut Schaffrath
!!!EEV: 1.0
*-
